symbols/web/airline_seat_flat_angled/materialsymbolssharp/airline_seat_flat_angled_wght500gradN25_24px.svg

<svg xmlns="http://www.w3.org/2000/svg" height="24" width="24"><path d="M9.325 13.075 11.7 6.6l11.925 4.35-2.35 6.45Zm-7.825.55.725-2.025L20.9 18.4l-.725 2.025Zm5.025-1.775q-1.275 0-2.163-.9-.887-.9-.887-2.175t.887-2.163q.888-.887 2.163-.887t2.163.887q.887.888.887 2.163t-.887 2.175q-.888.9-2.163.9Zm0-2.075q.425 0 .713-.288.287-.287.287-.712t-.287-.713q-.288-.287-.713-.287t-.713.287q-.287.288-.287.713t.287.712q.288.288.713.288Zm5.45 2.05 8.05 2.95.95-2.6-8.05-2.925ZM6.525 8.8Zm6.4.45-.95 2.575Z"/></svg>

<svg xmlns="http://www.w3.org/2000/svg" height="24" width="24"><path d="M9.325 13.075 11.7 6.6 23.625 10.95 21.275 17.4ZM1.5 13.625 2.225 11.6 20.9 18.4 20.175 20.425ZM6.525 11.85Q5.25 11.85 4.362 10.95Q3.475 10.05 3.475 8.775Q3.475 7.5 4.362 6.612Q5.25 5.725 6.525 5.725Q7.8 5.725 8.688 6.612Q9.575 7.5 9.575 8.775Q9.575 10.05 8.688 10.95Q7.8 11.85 6.525 11.85ZM6.525 9.775Q6.95 9.775 7.238 9.487Q7.525 9.2 7.525 8.775Q7.525 8.35 7.238 8.062Q6.95 7.775 6.525 7.775Q6.1 7.775 5.812 8.062Q5.525 8.35 5.525 8.775Q5.525 9.2 5.812 9.487Q6.1 9.775 6.525 9.775ZM11.975 11.825 20.025 14.775 20.975 12.175 12.925 9.25ZM6.525 8.8Q6.525 8.8 6.525 8.8Q6.525 8.8 6.525 8.8Q6.525 8.8 6.525 8.8Q6.525 8.8 6.525 8.8Q6.525 8.8 6.525 8.8Q6.525 8.8 6.525 8.8Q6.525 8.8 6.525 8.8Q6.525 8.8 6.525 8.8ZM12.925 9.25 11.975 11.825Z"/></svg>
